X: 19021
T: International Schottische, The
R: barndance
M: 4/4
K: Gmajor
|:A>G|F>GA>B c>de>f|g2 B2 B2 g>f|e2 A2 A2 f>e|d2 G>F G>BA>G|
F>GA>B c>de>f|g2 B2 B2 g>f|e2 A2 d2 F>G|A>GG>F G2:|
|:B>c|d>bb>d c>aa>c|B>gg>f g>dB>G|c2 e2 e>cA>F|G2 g>f g2 B>c|
d>bb>d c>aa>c|B>gg>f g>dB>G|c2 e2 e>fg>e|d>Bc>A G2:|

